X:126
T:Miss Percy's (r)
B:NFID.104a
126miss_pe
S:SD
Z:Robinson/Black
L:1/8
M:C
R:reel
Q:360
K:Am % dor
ed|:cA~A2 BAeA|BAeA dBGB|eA~A2 Bde^f|g2ge dBGB:|
c2ec gcec|c2gc dBGB|c2ec gce^f|g2ge dBGB|
c2ec gcec|c2gc dBGB|Aaag e^fge|dBGB A4|]

%%%

